www/assets/icons/fmd_bad.svg

<svg xmlns="http://www.w3.org/2000/svg" width="24" height="24" viewBox="0 0 24 24" fill='currentColor'><path d="M12 2c-4.2 0-8 3.22-8 8.2 0 3.32 2.67 7.25 8 11.8 5.33-4.55 8-8.48 8-11.8C20 5.22 16.2 2 12 2m1 13h-2v-2h2zm0-4h-2V6h2z"/></svg>

<svg width="24" height="24" viewBox="0 0 24 24" xmlns="http://www.w3.org/2000/svg" fill='currentColor'><path d="M12 2C7.8 2 4 5.22 4 10.2C4 13.52 6.67 17.45 12 22C17.33 17.45 20 13.52 20 10.2C20 5.22 16.2 2 12 2ZM13 15H11V13H13V15ZM13 11H11V6H13V11Z"/></svg>
